X: 12020
T: Erchless Scout, The
R: slip jig
M: 9/8
K: Dminor
M:1
/8
|:A,DDFED .C2 D2|A,DDFED EDDC|
A,DDFED .C2 D2|A,DF Gz G EDCD:|
K: Aminor
|:S EAAcBA .G2 A2|EAAcBA BAAG|
EAAcBA .G2 A2|1 EAc dz d BAGA:|2 EAc dz d BAGB||
|:cdegag edde|cdegag e2 de|
cdegag edde|1 aggged cAAB:|2 aggged cAAG||

